svg/furkot/icomoon/copy.svg

<svg viewBox="0 0 512 512" xmlns="http://www.w3.org/2000/svg"><path d="m320 128v-128h-224l-96 96v288h192v128h320v-384zm-224-82.744v50.744h-50.744zm-64 306.744v-224h96v-96h160v96l-96 96v128zm256-178.744v50.744h-50.744zm192 306.744h-256v-224h96v-96h160z"/></svg>

<svg xmlns="http://www.w3.org/2000/svg" viewBox="0 0 512 512"><path d="M320 128V0H96L0 96V384H192V512H512V128H320ZM96 45.256V96H45.256L96 45.256ZM32 352V128H128V32H288V128L192 224V352H32ZM288 173.256V224H237.256L288 173.256ZM480 480H224V256H320V160H480V480Z"/></svg>
